svg/u1f6c3.svg

<svg viewBox="0 0 128 128" xmlns="http://www.w3.org/2000/svg">
  <g>
    <path d="M116,4H12c-4.42,0-8,3.58-8,8v104c0,4.42,3.58,8,8,8h104c4.42,0,8-3.58,8-8V12 C124,7.58,120.42,4,116,4z" fill="#194FA5"/>
    <path d="M109.7,4H11.5C7.37,4.03,4.03,7.37,4,11.5v97.9c-0.01,4.14,3.34,7.49,7.48,7.5c0.01,0,0.01,0,0.02,0 h98.1c4.14,0.01,7.49-3.34,7.5-7.48c0-0.01,0-0.01,0-0.02V11.5c0.09-4.05-3.13-7.41-7.18-7.5C109.85,4,109.77,4,109.7,4z" fill="#2262DD"/>
    <path d="M39.7,12.9c0-2.3-1.6-3-10.8-2.7c-7.7,0.3-11.5,1.2-13.8,4c-1.9,2.3-2.3,5.6-2.6,8.4 c-0.2,2.2-2.2,15.9,3.5,12.2c0.68-0.45,1.23-1.07,1.6-1.8c1.2-2.1,1.9-4.5,3.3-6.6C26.2,17.8,39.7,15.9,39.7,12.9z" fill="#68ABE6"/>
    <g opacity="0.2">
      <polygon points="97,64.4 97.3,64 97,64 " fill="#424242"/>
    </g>
    <path d="M65.4,21.2c-1.1-1.23-1-3.13,0.24-4.24c0.54-0.48,1.24-0.76,1.96-0.76H99c1.1,0,2,0.9,2,2v5.1 c0,1.1-0.9,2-2,2H72.1C68.5,25.3,65.4,21.2,65.4,21.2z" fill="#FAFAFA"/>
    <path d="M96,112H70c-0.52,0.03-0.97-0.36-1-0.88c0-0.04,0-0.08,0-0.12v-6c-0.03-0.52,0.36-0.97,0.88-1 c0.04,0,0.08,0,0.12,0h26c0.52-0.03,0.97,0.36,1,0.88c0,0.04,0,0.08,0,0.12v6c0.03,0.52-0.36,0.97-0.88,1 C96.08,112,96.04,112,96,112z" fill="#FAFAFA"/>
    <path d="M101,30c0-1.1-0.9-2-2-2H71.1c-0.82,0.02-1.64,0.19-2.4,0.5l-4.3,1.9 c-0.94,0.58-1.23,1.81-0.65,2.75c0.37,0.6,1.04,0.96,1.75,0.95H70c0.55,0,1,0.44,1.01,0.99c0,0.04,0,0.07-0.01,0.11v0.9 c0,8.28,6.72,15,15,15s15-6.72,15-15V30z" fill="#FAFAFA"/>
    <path d="M69.1,73.2V87c0,0.55,0.45,1,1,1c0.31,0,0.61-0.15,0.8-0.4L93.5,60c0.5-0.7,1.8-4-0.8-4H76.1 c-2.58,0.02-5.08,0.9-7.1,2.5c-0.52,0.42-0.98,0.88-1.4,1.4L53.3,73.8c-0.98,0.91-2.27,1.41-3.6,1.4H34.4 c-2.73-0.02-5.04,2-5.4,4.7c-0.3,2.83,1.76,5.37,4.59,5.67c0.17,0.02,0.34,0.03,0.51,0.03h20.7c1.4-0.02,2.73-0.59,3.7-1.6l6.5-6.6 C65,77.3,69.1,73.2,69.1,73.2z" fill="#FAFAFA"/>
    <path d="M103.2,59.4c-0.18-0.17-0.38-0.3-0.6-0.4c-0.45-0.29-1.05-0.21-1.4,0.2L69.3,98.4 c-0.33,0.44-0.24,1.07,0.2,1.4c0.17,0.13,0.38,0.2,0.6,0.2H97V73c0-0.55,0.45-1,1-1s1,0.45,1,1v33.8c-0.03,2.62,1.9,4.85,4.5,5.2 c2.75,0.28,5.2-1.73,5.47-4.47c0.02-0.17,0.03-0.35,0.03-0.53V71.4C109.02,66.72,106.88,62.29,103.2,59.4z" fill="#FAFAFA"/>
    <path d="M23.3,106v-3.4c0-0.5,0.4-0.9,0.9-0.9l0,0H60c0.55,0,1,0.45,1,1v3.3c0,3.31-2.69,6-6,6H29.3 C25.99,112,23.3,109.31,23.3,106z" fill="#FAFAFA"/>
    <path d="M22.4,101.7H19c-3.31,0-6-2.69-6-6V70c0-3.31,2.69-6,6-6h3.3c0.55,0,1,0.45,1,1v35.9 C23.26,101.36,22.86,101.71,22.4,101.7z" fill="#FAFAFA"/>
  </g>
</svg>

<svg viewBox="0 0 128 128" xmlns="http://www.w3.org/2000/svg">
  <defs/>
  <path d="M116,4 L12,4 C7.58,4 4,7.58 4,12 L4,116 C4,120.42 7.58,124 12,124 L116,124 C120.42,124 124,120.42 124,116 L124,12 C124,7.58 120.42,4 116,4 Z" fill="#194FA5"/>
  <path d="M109.7,4 L11.5,4 C7.37,4.03 4.03,7.37 4,11.5 L4,109.4 C3.99,113.54 7.34,116.89 11.48,116.9 C11.49,116.9 11.49,116.9 11.5,116.9 L109.6,116.9 C113.74,116.91 117.09,113.56 117.1,109.42 C117.1,109.41 117.1,109.41 117.1,109.4 L117.1,11.5 C117.19,7.45 113.97,4.09 109.92,4 C109.85,4 109.77,4 109.7,4 Z" fill="#2262DD"/>
  <path d="M39.7,12.9 C39.7,10.6 38.1,9.9 28.9,10.2 C21.2,10.5 17.4,11.4 15.1,14.2 C13.2,16.5 12.8,19.8 12.5,22.6 C12.3,24.8 10.3,38.5 16,34.8 C16.68,34.35 17.23,33.73 17.6,33 C18.8,30.9 19.5,28.5 20.9,26.4 C26.2,17.8 39.7,15.9 39.7,12.9 Z" fill="#68ABE6"/>
  <path d="M97,64.4 L97.3,64 L97,64 Z" fill="#424242" opacity="0.2"/>
  <path d="M65.4,21.2 C64.3,19.97 64.4,18.07 65.64,16.96 C66.18,16.48 66.88,16.2 67.6,16.2 L99,16.2 C100.1,16.2 101,17.1 101,18.2 L101,23.3 C101,24.4 100.1,25.3 99,25.3 L72.1,25.3 C68.5,25.3 65.4,21.2 65.4,21.2 Z" fill="#FAFAFA"/>
  <path d="M96,112 L70,112 C69.48,112.03 69.03,111.64 69,111.12 C69,111.08 69,111.04 69,111 L69,105 C68.97,104.48 69.36,104.03 69.88,104 C69.92,104 69.96,104 70,104 L96,104 C96.52,103.97 96.97,104.36 97,104.88 C97,104.92 97,104.96 97,105 L97,111 C97.03,111.52 96.64,111.97 96.12,112 C96.08,112 96.04,112 96,112 Z" fill="#FAFAFA"/>
  <path d="M101,30 C101,28.9 100.1,28 99,28 L71.1,28 C70.28,28.02 69.46,28.19 68.7,28.5 L64.4,30.4 C63.46,30.98 63.17,32.21 63.75,33.15 C64.12,33.75 64.79,34.11 65.5,34.1 L70,34.1 C70.55,34.1 71,34.54 71.01,35.09 C71.01,35.13 71.01,35.16 71,35.2 L71,36.1 C71,44.38 77.72,51.1 86,51.1 C94.28,51.1 101,44.38 101,36.1 L101,30 Z" fill="#FAFAFA"/>
  <path d="M69.1,73.2 L69.1,87 C69.1,87.55 69.55,88 70.1,88 C70.41,88 70.71,87.85 70.9,87.6 L93.5,60 C94,59.3 95.3,56 92.7,56 L76.1,56 C73.52,56.02 71.02,56.9 69,58.5 C68.48,58.92 68.02,59.38 67.6,59.9 L53.3,73.8 C52.32,74.71 51.03,75.21 49.7,75.2 L34.4,75.2 C31.67,75.18 29.36,77.2 29,79.9 C28.7,82.73 30.76,85.27 33.59,85.57 C33.76,85.59 33.93,85.6 34.1,85.6 L54.8,85.6 C56.2,85.58 57.53,85.01 58.5,84 L65,77.4 C65,77.3 69.1,73.2 69.1,73.2 Z" fill="#FAFAFA"/>
  <path d="M103.2,59.4 C103.02,59.23 102.82,59.1 102.6,59 C102.15,58.71 101.55,58.79 101.2,59.2 L69.3,98.4 C68.97,98.84 69.06,99.47 69.5,99.8 C69.67,99.93 69.88,100 70.1,100 L97,100 L97,73 C97,72.45 97.45,72 98,72 C98.55,72 99,72.45 99,73 L99,106.8 C98.97,109.42 100.9,111.65 103.5,112 C106.25,112.28 108.7,110.27 108.97,107.53 C108.99,107.36 109,107.18 109,107 L109,71.4 C109.02,66.72 106.88,62.29 103.2,59.4 Z" fill="#FAFAFA"/>
  <path d="M23.3,106 L23.3,102.6 C23.3,102.1 23.7,101.7 24.2,101.7 L24.2,101.7 L60,101.7 C60.55,101.7 61,102.15 61,102.7 L61,106 C61,109.31 58.31,112 55,112 L29.3,112 C25.99,112 23.3,109.31 23.3,106 Z" fill="#FAFAFA"/>
  <path d="M22.4,101.7 L19,101.7 C15.69,101.7 13,99.01 13,95.7 L13,70 C13,66.69 15.69,64 19,64 L22.3,64 C22.85,64 23.3,64.45 23.3,65 L23.3,100.9 C23.26,101.36 22.86,101.71 22.4,101.7 Z" fill="#FAFAFA"/>
</svg>
